X: 935
T: Stoney Point
B: jims roots
M:C
L:1/8
Q: 1/4=100
K:G
V:1 
%N:Alternate titles: Stony Point, Nigger in the Woodpile
%N:Transcribed by Bruce Thomson /Jim Kendrick
((3DEF) |: "G"G2ge d2ed | B2ge dcBA | G2ge d2ed | BAGB "D"AGEF |
"G"G2ge d2ed | B2ge dcBA | G2ge d2 ea | [1 "D"fgaf "G"g2((3DEF):| [2 "D"fgaf "G"gfed||
|: "Em"e2ee e2eg | fgaf gfed | e2ee e2eg | fgaf "G"g4:|
|: "G"gfga bgfe | "D"fefg afed | "G"gfga bgeg | "D"fgaf "G"g4:|
% abcbook-tune_id 6298c287cc0becee408de176


% abcbook-boost 0
% abcbook-tablature 
% abcbook-transpose 
% abcbook-lastupdated 1654178440964
% abcbook-soundfonts 
% abcbook-repeats 1


